X: 20422
Q: "Andantino"
M: 2/4
L: 1/16
K: G
!p!g2 |\
(g4 .d2)dd | (d4 .B2)BB | B4 (c/B/A/B/) (d>c) | A4 z3a |\
(a3f) (f3d) | (d3f/e/) d4 | c2cc (d/c/B/c/) (d>c) | B4 z3g |\
g4 zeee | g3d d2gg |
e4 {a}g3e | d4 z3B |\
a3a (3(agf) (3(fed) | (d>gg2) z2(e>g) | g3g (f2ga) | g6 |]



